; generated by PrusaSlicer 2.5.2+win64 on 2023-05-24 at 08:01:14 UTC


;
;
; 

; external perimeters extrusion width = 0.60mm
; perimeters extrusion width = 0.50mm
; infill extrusion width = 0.50mm
; solid infill extrusion width = 0.50mm
; top infill extrusion width = 0.45mm
; first layer extrusion width = 0.42mm

M73 P0 R48
M73 C34
M73 Q0 S49
M73 D34
M201 X1000 Y1000 Z200 E5000 ; sets maximum accelerations, mm/sec^2
M203 X200 Y200 Z12 E120 ; sets maximum feedrates, mm / sec
M204 P1250 R1250 T1250 ; sets acceleration (P, T) and retract acceleration (R), mm/sec^2
M205 X8.00 Y8.00 Z0.40 E4.50 ; sets the jerk limits, mm/sec
M205 S0 T0 ; sets the minimum extruding and travel feed rate, mm/sec
M107
;TYPE:Custom
M862.3 P "MK3S" ; printer model check
M862.1 P0.4 ; nozzle diameter check
M115 U3.12.2 ; tell printer latest fw version
G90 ; use absolute coordinates
M83 ; extruder relative mode
M104 S230 ; set extruder temp
M140 S85 ; set bed temp
M190 S85 ; wait for bed temp
M109 S230 ; wait for extruder temp
G28 W ; home all without mesh bed level
G80 ; mesh bed leveling

G1 Z0.2 F720
G1 Y-3 F1000 ; go outside print area
G92 E0
G1 X60 E9 F1000 ; intro line
G1 X100 E12.5 F1000 ; intro line

G92 E0
M221 S95

; Don't change E values below. Excessive value can damage the printer.

M907 E538 ; set extruder motor current
G21 ; set units to millimeters
G90 ; use absolute coordinates
M83 ; use relative distances for extrusion
M900 K0.08 ; Filament gcode LA 1.5
M900 K45 ; Filament gcode LA 1.0
M107
;LAYER_CHANGE
;Z:0.2
;HEIGHT:0.2
;BEFORE_LAYER_CHANGE
G92 E0.0
;0.2


G1 E-1 F2100
G1 Z.2 F720
;AFTER_LAYER_CHANGE
;0.2
G1 Z.4
G1 X88.928 Y75.811 F10800
G1 Z.2 F720
G1 E1 F2100
M204 S800
;TYPE:Skirt/Brim
;WIDTH:0.42
G1 F1200
G1 X89.973 Y74.602 E.05013
G1 X90.993 Y73.807 E.04054
G1 X92.129 Y73.205 E.04032
G1 X93.443 Y72.79 E.04321
G1 X94.73 Y72.628 E.04066
G1 X155.052 Y72.623 E1.89135
G1 X156.535 Y72.785 E.04679
M73 Q0 S48
G1 X157.768 Y73.162 E.04042
G1 X159.007 Y73.807 E.04378
G1 X160.022 Y74.596 E.04032
G1 X160.884 Y75.551 E.04032
G1 X161.66 Y76.829 E.0469
G1 X162.112 Y78.041 E.04054
G1 X162.352 Y79.397 E.0432
G1 X162.372 Y130.263 E1.59485
G1 X162.19 Y131.647 E.04378
G1 X161.707 Y133.07 E.04713
G1 X161.013 Y134.273 E.04356
G1 X160.027 Y135.398 E.0469
G1 X159.007 Y136.193 E.04054
G1 X157.871 Y136.795 E.04032
G1 X156.647 Y137.19 E.04032
G1 X155.27 Y137.372 E.04355
G1 X95 Y137.377 E1.88972
G1 X93.495 Y137.222 E.04743
G1 X92.014 Y136.745 E.04879
G1 X90.828 Y136.083 E.0426
G1 X89.64 Y135.068 E.049
G1 X88.86 Y134.089 E.03923
G1 X88.175 Y132.8 E.04575
G1 X87.8 Y131.603 E.03933
G1 X87.628 Y130.273 E.04205
G1 X87.623 Y80 E1.57629
G1 X87.787 Y78.454 E.04874
G1 X88.205 Y77.129 E.04356
G1 X88.899 Y75.864 E.04524
M204 S1000
; printing object PowerSwitchLabel_-_Updated (1).stl id:0 copy 0
;WIPE_START
G1 F8640
G1 X89.973 Y74.602 E-.38276
G1 X90.993 Y73.807 E-.29857
G1 X92.021 Y73.262 E-.26867
;WIPE_END
G1 E-.05 F2100
G1 Z.4 F720
G1 X92.95 Y133.651 F10800
G1 Z.2 F720
G1 E1 F2100
M204 S800
;TYPE:Perimeter
;WIDTH:0.419999
G1 F1200
G1 X92.635 Y133.476 E.01127
G1 X92.222 Y133.166 E.01621
G1 X91.843 Y132.787 E.01682
G1 X91.414 Y132.208 E.02258
G1 X91.093 Y131.57 E.02239
G1 X90.884 Y130.887 E.02239
G1 X90.791 Y130.167 E.02277
G1 X90.787 Y80.027 E1.57209
G1 X90.838 Y79.446 E.01829
G1 X90.93 Y78.916 E.01687
G1 X91.109 Y78.388 E.01748
G1 X91.35 Y77.9 E.01708
G1 X91.778 Y77.289 E.02339
G1 X92.151 Y76.899 E.0169
G1 X92.597 Y76.557 E.01763
G1 X93.049 Y76.267 E.01686
G1 X93.554 Y76.045 E.01729
G1 X94.269 Y75.853 E.0232
G1 X95.027 Y75.787 E.02387
G1 X155.169 Y75.792 E1.88569
G1 X155.911 Y75.889 E.02349
M73 C33
G1 X156.611 Y76.11 E.02301
G1 X157.268 Y76.451 E.0232
G1 X157.702 Y76.77 E.0169
G1 X158.226 Y77.293 E.0232
G1 X158.647 Y77.895 E.02301
G1 X158.882 Y78.399 E.01743
G1 X159.067 Y78.904 E.01687
G1 X159.176 Y79.454 E.01759
G1 X159.208 Y79.979 E.01649
G1 X159.208 Y130.023 E1.56911
G1 X159.177 Y130.543 E.01634
M73 P1 R48
M73 Q1 S48
M73 D33
G1 X159.069 Y131.084 E.01729
G1 X158.816 Y131.78 E.0232
G1 X158.538 Y132.261 E.01744
G1 X158.231 Y132.703 E.01686
G1 X157.849 Y133.101 E.01729
G1 X157.403 Y133.443 E.01763
G1 X156.951 Y133.733 E.01686
G1 X156.446 Y133.955 E.01729
G1 X155.731 Y134.147 E.0232
G1 X154.973 Y134.213 E.02387
G1 X95.113 Y134.213 E1.87684
G1 X94.649 Y134.197 E.01457
G1 X94.113 Y134.117 E.017
G1 X93.605 Y133.974 E.01654
G1 X93.208 Y133.794 E.01368
G1 X93.002 Y133.68 E.00737
M204 S1000
G1 X92.759 Y134.005 F10800
M204 S800
;TYPE:External perimeter
G1 F1200
G1 X92.431 Y133.793 E.01224
G1 X91.969 Y133.447 E.01809
G1 X91.556 Y133.033 E.01833
G1 X91.092 Y132.406 E.02446
G1 X90.742 Y131.711 E.02441
G1 X90.514 Y130.967 E.02441
G1 X90.414 Y130.191 E.02453
G1 X90.41 Y80.011 E1.57335
G1 X90.462 Y79.413 E.01881
G1 X90.566 Y78.814 E.01906
G1 X90.76 Y78.244 E.0189
G1 X91.025 Y77.707 E.01876
G1 X91.486 Y77.049 E.0252
G1 X91.898 Y76.618 E.01871
G1 X92.367 Y76.258 E.01853
G1 X92.879 Y75.93 E.01905
G1 X93.429 Y75.688 E.01884
G1 X94.203 Y75.481 E.02514
G1 X95.011 Y75.41 E.02542
G1 X155.193 Y75.415 E1.88697
G1 X155.993 Y75.52 E.0253
G1 X156.756 Y75.76 E.02508
G1 X157.467 Y76.13 E.02514
G1 X157.949 Y76.483 E.01871
G1 X158.516 Y77.05 E.02514
G1 X158.974 Y77.705 E.02508
G1 X159.223 Y78.239 E.01847
G1 X159.433 Y78.81 E.01906
G1 X159.55 Y79.4 E.01888
G1 X159.585 Y79.979 E.01817
G1 X159.585 Y130.023 E1.56911
G1 X159.551 Y130.597 E.01801
G1 X159.433 Y131.186 E.01884
G1 X159.159 Y131.939 E.02514
G1 X158.865 Y132.45 E.01847
G1 X158.517 Y132.948 E.01905
G1 X158.102 Y133.382 E.01884
G1 X157.633 Y133.742 E.01853
G1 X157.121 Y134.07 E.01905
G1 X156.571 Y134.312 E.01884
G1 X155.797 Y134.519 E.02514
G1 X154.989 Y134.59 E.02542
G1 X95.113 Y134.59 E1.87736
G1 X94.613 Y134.573 E.0157
G1 X94.033 Y134.487 E.01838
G1 X93.475 Y134.329 E.01817
G1 X92.813 Y134.03 E.02277
M204 S1000
G1 X92.751 Y133.615 F10800
;WIPE_START
G1 F8640
G1 X92.431 Y133.793 E-.10386
G1 X91.969 Y133.447 E-.13323
G1 X91.556 Y133.033 E-.13498
G1 X91.092 Y132.406 E-.18015
G1 X90.742 Y131.711 E-.17973
G1 X90.514 Y130.967 E-.17974
G1 X90.493 Y130.802 E-.03832
;WIPE_END
G1 E-.05 F2100
G1 Z.4 F720
G1 X144.357 Y78.636 F10800
G1 Z.2 F720
G1 E1 F2100
M204 S800
;TYPE:Perimeter
G1 F1200
G1 X144.693 Y79.04 E.01647
G1 X144.957 Y79.548 E.01795
G1 X145.102 Y80.083 E.01737
G1 X145.135 Y80.549 E.01467
G1 X145.083 Y81.018 E.01479
G1 X144.939 Y81.504 E.01588
G1 X144.688 Y81.967 E.01652
G1 X144.369 Y82.361 E.0159
G1 X143.974 Y82.685 E.01601
G1 X143.521 Y82.931 E.01616
G1 X143.01 Y83.085 E.01674
G1 X142.503 Y83.137 E.01597
G1 X141.998 Y83.086 E.01592
G1 X141.491 Y82.937 E.01658
G1 X141.033 Y82.688 E.01634
G1 X140.602 Y82.329 E.01759
G1 X140.307 Y81.96 E.0148
G1 X140.063 Y81.508 E.01612
G1 X139.918 Y81.026 E.01576
G1 X139.865 Y80.551 E.015
G1 X139.917 Y79.982 E.01791
G1 X140.084 Y79.446 E.01759
G1 X140.312 Y79.033 E.0148
G1 X140.681 Y78.594 E.01798
G1 X141.126 Y78.251 E.0176
G1 X141.537 Y78.047 E.01441
G1 X141.989 Y77.915 E.01477
G1 X142.493 Y77.863 E.01586
G1 X143.018 Y77.917 E.01657
G1 X143.565 Y78.09 E.01798
G1 X144.052 Y78.37 E.0176
G1 X144.312 Y78.597 E.01083
M204 S1000
G1 X144.125 Y78.933 F10800
M204 S800
;TYPE:External perimeter
G1 F1200
G1 X144.362 Y79.221 E.01171
G1 X144.595 Y79.654 E.01541
G1 X144.727 Y80.116 E.01506
G1 X144.759 Y80.516 E.01259
G1 X144.721 Y80.913 E.01248
G1 X144.581 Y81.38 E.01528
G1 X144.394 Y81.731 E.01249
G1 X144.086 Y82.109 E.01528
G1 X143.779 Y82.362 E.01249
G1 X143.35 Y82.594 E.01528
G1 X142.969 Y82.71 E.01249
G1 X142.48 Y82.759 E.01541
G1 X142.002 Y82.704 E.01506
G1 X141.62 Y82.581 E.01259
G1 X141.269 Y82.394 E.01248
G1 X140.891 Y82.086 E.01528
G1 X140.638 Y81.779 E.01249
G1 X140.405 Y81.346 E.01541
G1 X140.273 Y80.884 E.01506
G1 X140.241 Y80.517 E.01155
G1 X140.279 Y80.087 E.01352
G1 X140.419 Y79.62 E.01528
G1 X140.606 Y79.269 E.01249
G1 X140.917 Y78.888 E.01542
G1 X141.3 Y78.586 E.01529
G1 X141.651 Y78.406 E.01236
G1 X142.031 Y78.29 E.01247
G1 X142.509 Y78.241 E.01505
G1 X142.913 Y78.279 E.01273
G1 X143.383 Y78.421 E.01542
G1 X143.809 Y78.658 E.01529
G1 X144.082 Y78.891 E.01125
M204 S1000
G1 X144.486 Y78.838 F10800
;WIPE_START
G1 F8640
G1 X144.362 Y79.221 E-.09996
G1 X144.595 Y79.654 E-.11346
G1 X144.727 Y80.116 E-.11094
G1 X144.759 Y80.516 E-.0927
G1 X144.721 Y80.913 E-.09194
G1 X144.581 Y81.38 E-.11253
G1 X144.394 Y81.731 E-.09199
G1 X144.086 Y82.109 E-.11254
G1 X143.779 Y82.362 E-.09198
G1 X143.657 Y82.428 E-.03195
;WIPE_END
G1 E-.05 F2100
G1 Z.4 F720
G1 X122.567 Y79.497 F10800
G1 Z.2 F720
G1 E1 F2100
M204 S800
;TYPE:Perimeter
G1 F1200
G1 X122.812 Y79.033 E.01647
G1 X123.181 Y78.594 E.01798
G1 X123.626 Y78.251 E.0176
G1 X124.037 Y78.047 E.01441
G1 X124.489 Y77.915 E.01477
G1 X124.993 Y77.863 E.01586
G1 X125.518 Y77.917 E.01657
G1 X126.054 Y78.084 E.01759
G1 X126.467 Y78.312 E.0148
G1 X126.906 Y78.681 E.01798
G1 X127.249 Y79.126 E.0176
G1 X127.457 Y79.548 E.01478
G1 X127.602 Y80.083 E.01736
G1 X127.634 Y80.562 E.01506
G1 X127.575 Y81.069 E.01601
G1 X127.416 Y81.554 E.01601
G1 X127.188 Y81.967 E.01479
G1 X126.819 Y82.406 E.01798
G1 X126.374 Y82.749 E.0176
G1 X125.963 Y82.953 E.01441
G1 X125.51 Y83.085 E.01479
G1 X125 Y83.137 E.01607
G1 X124.498 Y83.086 E.01582
G1 X123.946 Y82.916 E.01811
G1 X123.533 Y82.688 E.01479
G1 X123.102 Y82.329 E.01759
G1 X122.807 Y81.96 E.0148
G1 X122.563 Y81.507 E.01614
G1 X122.417 Y81.018 E.016
G1 X122.366 Y80.438 E.01826
G1 X122.438 Y79.882 E.01759
G1 X122.548 Y79.554 E.01083
M204 S1000
G1 X122.931 Y79.597 F10800
M204 S800
;TYPE:External perimeter
G1 F1200
G1 X123.106 Y79.269 E.01168
G1 X123.417 Y78.888 E.01542
G1 X123.8 Y78.586 E.01529
G1 X124.151 Y78.406 E.01236
G1 X124.531 Y78.29 E.01247
G1 X125.009 Y78.241 E.01505
G1 X125.413 Y78.279 E.01273
G1 X125.88 Y78.419 E.01528
G1 X126.231 Y78.606 E.01249
G1 X126.612 Y78.917 E.01542
G1 X126.914 Y79.3 E.01529
G1 X127.095 Y79.654 E.01248
G1 X127.227 Y80.116 E.01506
G1 X127.259 Y80.521 E.01272
G1 X127.202 Y81.005 E.01528
G1 X127.081 Y81.38 E.01236
G1 X126.894 Y81.731 E.01248
G1 X126.583 Y82.112 E.01542
G1 X126.2 Y82.414 E.01529
G1 X125.849 Y82.594 E.01236
G1 X125.469 Y82.71 E.01248
G1 X124.98 Y82.759 E.01541
G1 X124.502 Y82.704 E.01506
G1 X124.12 Y82.581 E.01259
G1 X123.769 Y82.394 E.01248
G1 X123.391 Y82.086 E.01528
G1 X123.138 Y81.779 E.01249
G1 X122.905 Y81.346 E.01541
G1 X122.772 Y80.876 E.01529
G1 X122.741 Y80.479 E.01249
G1 X122.798 Y79.995 E.01528
G1 X122.908 Y79.653 E.01128
M204 S1000
G1 X122.705 Y79.301 F10800
;WIPE_START
G1 F8640
G1 X123.106 Y79.269 E-.09973
G1 X123.417 Y78.888 E-.11352
G1 X123.8 Y78.586 E-.1126
G1 X124.151 Y78.406 E-.09099
G1 X124.531 Y78.29 E-.09187
G1 X125.009 Y78.241 E-.11086
G1 X125.413 Y78.279 E-.09372
G1 X125.88 Y78.419 E-.11255
G1 X126.231 Y78.606 E-.09198
G1 X126.339 Y78.694 E-.03218
;WIPE_END
G1 E-.05 F2100
G1 Z.4 F720
G1 X109.933 Y81.5 F10800
G1 Z.2 F720
G1 E1 F2100
M204 S800
;TYPE:Perimeter
G1 F1200
G1 X109.688 Y81.967 E.01653
G1 X109.32 Y82.405 E.01795
G1 X108.888 Y82.741 E.01712
G1 X108.452 Y82.957 E.01528
G1 X107.917 Y83.102 E.01736
G1 X107.439 Y83.134 E.01503
G1 X106.939 Y83.077 E.01577
G1 X106.446 Y82.916 E.01627
G1 X106.033 Y82.688 E.01479
G1 X105.622 Y82.351 E.01667
G1 X105.28 Y81.923 E.01718
G1 X105.043 Y81.452 E.01654
G1 X104.898 Y80.917 E.01736
G1 X104.866 Y80.439 E.01503
G1 X104.936 Y79.89 E.01736
G1 X105.084 Y79.446 E.01467
G1 X105.312 Y79.033 E.01479
G1 X105.671 Y78.602 E.01759
G1 X106.04 Y78.307 E.0148
G1 X106.537 Y78.047 E.01759
G1 X106.989 Y77.915 E.01478
G1 X107.493 Y77.863 E.01586
G1 X108.018 Y77.917 E.01657
G1 X108.554 Y78.084 E.01759
G1 X108.967 Y78.312 E.0148
G1 X109.406 Y78.681 E.01798
G1 X109.749 Y79.126 E.0176
G1 X109.953 Y79.537 E.01441
G1 X110.085 Y79.99 E.01479
G1 X110.134 Y80.562 E.01798
G1 X110.075 Y81.069 E.01601
G1 X109.952 Y81.443 E.01237
M204 S1000
G1 X109.57 Y81.402 F10800
M204 S800
;TYPE:External perimeter
G1 F1200
G1 X109.394 Y81.731 E.01171
G1 X109.083 Y82.112 E.01541
G1 X108.707 Y82.41 E.01507
G1 X108.346 Y82.595 E.01271
G1 X107.884 Y82.727 E.01506
G1 X107.48 Y82.759 E.01271
G1 X107.002 Y82.704 E.01506
G1 X106.62 Y82.581 E.01259
G1 X106.269 Y82.394 E.01248
G1 X105.888 Y82.083 E.01542
G1 X105.586 Y81.7 E.01529
G1 X105.405 Y81.346 E.01248
G1 X105.273 Y80.884 E.01506
G1 X105.241 Y80.48 E.01271
G1 X105.296 Y80.002 E.01506
G1 X105.419 Y79.62 E.01259
G1 X105.606 Y79.269 E.01248
G1 X105.914 Y78.891 E.01528
G1 X106.221 Y78.638 E.01249
G1 X106.65 Y78.406 E.01528
G1 X107.031 Y78.29 E.01248
G1 X107.509 Y78.241 E.01505
G1 X107.913 Y78.279 E.01273
G1 X108.38 Y78.419 E.01528
G1 X108.731 Y78.606 E.01249
G1 X109.112 Y78.917 E.01541
G1 X109.414 Y79.3 E.01529
G1 X109.594 Y79.651 E.01236
G1 X109.71 Y80.031 E.01248
G1 X109.759 Y80.521 E.01542
G1 X109.702 Y81.005 E.01529
G1 X109.592 Y81.346 E.01125
M204 S1000
G1 X109.796 Y81.699 F10800
;WIPE_START
G1 F8640
G1 X109.394 Y81.731 E-.09996
G1 X109.083 Y82.112 E-.11346
G1 X108.707 Y82.41 E-.11095
G1 X108.346 Y82.595 E-.09363
G1 X107.884 Y82.727 E-.11089
G1 X107.48 Y82.759 E-.09363
G1 X107.002 Y82.704 E-.11089
G1 X106.62 Y82.581 E-.09271
G1 X106.269 Y82.394 E-.09193
G1 X106.162 Y82.306 E-.03196
;WIPE_END
G1 E-.05 F2100
G1 Z.4 F720
G1 X109.982 Y89.696 F10800
G1 Z.2 F720
G1 E1 F2100
M204 S800
;TYPE:Perimeter
G1 F1200
G1 X110.023 Y89.525 E.00554
G1 X110.202 Y89.317 E.0086
G1 X110.468 Y89.216 E.00891
G1 X139.471 Y89.213 E.90939
G1 X139.733 Y89.277 E.00845
G1 X139.948 Y89.474 E.00915
G1 X140.036 Y89.748 E.00902
G1 X140.037 Y100.821 E.3472
G1 X139.977 Y101.075 E.00817
G1 X139.934 Y101.146 E.0026
G1 X139.714 Y101.332 E.00903
G1 X139.471 Y101.387 E.00781
G1 X110.529 Y101.387 E.90748
G1 X110.257 Y101.317 E.0088
G1 X110.065 Y101.146 E.00804
G1 X109.97 Y100.91 E.00799
G1 X109.963 Y100.821 E.00279
G1 X109.969 Y89.755 E.34699
M204 S1000
G1 X110.34 Y89.779 F10800
M204 S800
;TYPE:External perimeter
G1 F1200
G1 X110.406 Y89.635 E.00495
G1 X110.529 Y89.59 E.00409
G1 X139.475 Y89.59 E.90759
G1 X139.62 Y89.662 E.00507
M73 P2 R48
M73 Q2 S48
G1 X139.66 Y89.779 E.00387
G1 X139.66 Y100.821 E.34624
G1 X139.626 Y100.93 E.00356
M73 P2 R47
G1 X139.471 Y101.01 E.00545
G1 X110.529 Y101.01 E.90748
G1 X110.382 Y100.94 E.00508
G1 X110.34 Y100.821 E.00396
G1 X110.34 Y89.839 E.34436
M204 S1000
G1 X110.231 Y89.664 F10800
;WIPE_START
G1 F8640
G1 X110.406 Y89.635 E-.0494
G1 X110.529 Y89.59 E-.03011
G1 X114.298 Y89.59 E-.87049
;WIPE_END
G1 E-.05 F2100
G1 Z.4 F720
G1 X156.906 Y76.454 F10800
G1 Z.2 F720
G1 E1 F2100
M204 S800
;TYPE:Solid infill
;WIDTH:0.421236
G1 F1200
G1 X157.967 Y77.515 E.04721
G1 X158.352 Y78.065 E.0211
G1 X158.661 Y78.745 E.02349
G1 X156.276 Y76.36 E.10608
G1 X155.838 Y76.222 E.01446
G1 X155.568 Y76.186 E.00857
G1 X158.829 Y79.448 E.1451
G1 X158.869 Y79.831 E.01212
G1 X158.869 Y80.023 E.00602
G1 X154.977 Y76.131 E.17313
G1 X154.442 Y76.131 E.01683
G1 X158.869 Y80.558 E.19693
G1 X158.869 Y81.093 E.01683
G1 X153.907 Y76.131 E.22074
G1 X153.372 Y76.131 E.01683
G1 X158.869 Y81.628 E.24454
G1 X158.869 Y82.163 E.01683
G1 X152.837 Y76.131 E.26834
G1 X152.302 Y76.131 E.01683
G1 X158.869 Y82.698 E.29215
G1 X158.869 Y83.233 E.01683
G1 X151.767 Y76.131 E.31595
G1 X151.232 Y76.131 E.01683
G1 X158.869 Y83.768 E.33975
G1 X158.869 Y84.303 E.01683
G1 X150.697 Y76.131 E.36356
G1 X150.162 Y76.131 E.01683
G1 X158.869 Y84.838 E.38736
G1 X158.869 Y85.373 E.01683
G1 X149.627 Y76.131 E.41116
G1 X149.092 Y76.131 E.01683
M73 Q2 S47
G1 X158.869 Y85.908 E.43497
G1 X158.869 Y86.443 E.01683
G1 X148.557 Y76.13 E.45877
G1 X148.021 Y76.13 E.01683
G1 X158.869 Y86.978 E.48257
G1 X158.869 Y87.513 E.01683
G1 X147.486 Y76.13 E.50638
G1 X146.951 Y76.13 E.01683
G1 X158.869 Y88.048 E.53018
G1 X158.869 Y88.583 E.01683
G1 X146.416 Y76.13 E.55398
G1 X145.881 Y76.13 E.01683
G1 X158.869 Y89.118 E.57779
G1 X158.869 Y89.653 E.01683
G1 X145.346 Y76.13 E.60159
G1 X144.811 Y76.13 E.01683
G1 X158.869 Y90.188 E.62539
G1 X158.869 Y90.723 E.01683
G1 X144.276 Y76.13 E.6492
G1 X143.741 Y76.13 E.01683
G1 X158.869 Y91.258 E.673
G1 X158.869 Y91.793 E.01683
G1 X143.206 Y76.13 E.6968
G1 X142.671 Y76.13 E.01683
G1 X158.869 Y92.328 E.72061
G1 X158.869 Y92.863 E.01683
G1 X142.136 Y76.13 E.74441
