; generated by PrusaSlicer 2.5.2+win64 on 2023-05-24 at 15:38:09 UTC


;
;
; 

; external perimeters extrusion width = 0.60mm
; perimeters extrusion width = 0.50mm
; infill extrusion width = 0.50mm
; solid infill extrusion width = 0.50mm
; top infill extrusion width = 0.45mm
; first layer extrusion width = 0.42mm

; external perimeters extrusion width = 0.60mm
; perimeters extrusion width = 0.50mm
; infill extrusion width = 0.50mm
; solid infill extrusion width = 0.50mm
; top infill extrusion width = 0.45mm
; first layer extrusion width = 0.42mm

; external perimeters extrusion width = 0.60mm
; perimeters extrusion width = 0.50mm
; infill extrusion width = 0.50mm
; solid infill extrusion width = 0.50mm
; top infill extrusion width = 0.45mm
; first layer extrusion width = 0.42mm

M73 P0 R125
M73 Q0 S126
M201 X1000 Y1000 Z200 E5000 ; sets maximum accelerations, mm/sec^2
M203 X200 Y200 Z12 E120 ; sets maximum feedrates, mm / sec
M204 P1250 R1250 T1250 ; sets acceleration (P, T) and retract acceleration (R), mm/sec^2
M205 X8.00 Y8.00 Z0.40 E4.50 ; sets the jerk limits, mm/sec
M205 S0 T0 ; sets the minimum extruding and travel feed rate, mm/sec
M107
;TYPE:Custom
M862.3 P "MK3S" ; printer model check
M862.1 P0.4 ; nozzle diameter check
M115 U3.12.2 ; tell printer latest fw version
G90 ; use absolute coordinates
M83 ; extruder relative mode
M104 S230 ; set extruder temp
M140 S85 ; set bed temp
M190 S85 ; wait for bed temp
M109 S230 ; wait for extruder temp
G28 W ; home all without mesh bed level
G80 ; mesh bed leveling

G1 Z0.2 F720
G1 Y-3 F1000 ; go outside print area
G92 E0
G1 X60 E9 F1000 ; intro line
G1 X100 E12.5 F1000 ; intro line

G92 E0
M221 S95

; Don't change E values below. Excessive value can damage the printer.

M907 E538 ; set extruder motor current
G21 ; set units to millimeters
G90 ; use absolute coordinates
M83 ; use relative distances for extrusion
M900 K0.08 ; Filament gcode LA 1.5
M900 K45 ; Filament gcode LA 1.0
M107
;LAYER_CHANGE
;Z:0.2
;HEIGHT:0.2
;BEFORE_LAYER_CHANGE
G92 E0.0
;0.2


G1 E-1 F2100
G1 Z.2 F720
;AFTER_LAYER_CHANGE
;0.2
G1 Z.4
G1 X38.881 Y76.449 F10800
G1 Z.2 F720
G1 E1 F2100
M204 S800
;TYPE:Skirt/Brim
;WIDTH:0.42
G1 F1200
G1 X179.661 Y48.314 E4.50133
G1 X183.076 Y47.81 E.10823
G1 X186.494 Y47.654 E.10729
G1 X189.059 Y47.761 E.08048
G1 X192.308 Y48.179 E.10272
G1 X194.9 Y48.742 E.08318
G1 X197.359 Y49.479 E.08048
G1 X199.756 Y50.398 E.08048
G1 X202.077 Y51.495 E.08048
G1 X204.309 Y52.763 E.08048
G1 X206.439 Y54.195 E.08048
G1 X208.456 Y55.783 E.08048
G1 X210.347 Y57.518 E.08048
G1 X212.103 Y59.391 E.08048
G1 X213.713 Y61.39 E.08048
G1 X215.2 Y63.555 E.08235
G1 X216.488 Y65.775 E.08048
G1 X217.606 Y68.086 E.08048
G1 X218.547 Y70.474 E.08048
G1 X219.52 Y73.768 E.10771
G1 X220.017 Y76.212 E.0782
G1 X220.254 Y77.907 E.05366
G1 X220.471 Y81.322 E.10729
G1 X220.34 Y84.801 E.10915
G1 X220.025 Y87.301 E.07899
G1 X214.12 Y124.975 E1.19566
G1 X213.531 Y126.205 E.04278
G1 X212.347 Y126.913 E.04324
G1 X97.097 Y155.663 E3.72432
G1 X96.522 Y155.734 E.01818
M73 Q0 S125
G1 X33.022 Y155.734 E1.991
G1 X31.715 Y155.342 E.04278
G1 X30.838 Y154.296 E.04278
G1 X30.645 Y153.356 E.03008
G1 X30.645 Y89.856 E1.991
G1 X30.957 Y88.678 E.03824
M73 P0 R124
G1 X37.283 Y77.601 E.39993
G1 X38.833 Y76.484 E.0599
M204 S1000
; printing object circle permanent team flag v1 id:0 copy 0
;WIPE_START
G1 F8640
G1 X42.867 Y75.677 E-.95
;WIPE_END
G1 E-.05 F2100
G1 Z.4 F720
G1 X155.476 Y84.423 F10800
G1 Z.2 F720
G1 E1 F2100
M204 S800
;TYPE:Perimeter
;WIDTH:0.419999
G1 F1200
G1 X155.424 Y84.269 E.0051
G1 X155.214 Y84.065 E.00918
G1 X154.938 Y83.993 E.00896
G1 X60.303 Y83.993 E2.9672
;WIDTH:0.451022
G1 X59.464 Y83.978 E.02849
G1 X58.612 Y83.99 E.02892
;WIDTH:0.4264
G1 X58.103 Y83.993 E.01623
;WIDTH:0.419999
G1 X40.134 Y83.993 E.56339
G1 X40.134 Y79.567 E.13877
G1 X58.533 Y79.567 E.57689
;WIDTH:0.446471
G1 X59.936 Y79.573 E.04708
;WIDTH:0.431216
G1 X60.445 Y79.567 E.01643
;WIDTH:0.419999
G1 X154.938 Y79.567 E2.96274
G1 X155.214 Y79.495 E.00896
G1 X155.398 Y79.33 E.00774
G1 X155.5 Y79.062 E.009
G1 X155.605 Y78.086 E.03078
G1 X155.83 Y76.546 E.0488
G1 X156.131 Y75.023 E.04869
G1 X156.508 Y73.516 E.04869
G1 X156.959 Y72.031 E.04868
G1 X157.486 Y70.568 E.04873
G1 X157.929 Y69.493 E.03648
G1 X158.409 Y68.433 E.03648
G1 X159.114 Y67.048 E.04873
G1 X159.888 Y65.698 E.0488
G1 X160.296 Y65.046 E.02411
G1 X161.17 Y63.758 E.0488
G1 X162.105 Y62.518 E.04869
G1 X163.101 Y61.327 E.04869
G1 X164.156 Y60.187 E.04869
G1 X165.266 Y59.102 E.04869
G1 X166.43 Y58.074 E.04869
G1 X167.644 Y57.105 E.04869
G1 X168.904 Y56.198 E.04869
G1 X170.209 Y55.356 E.04869
G1 X171.557 Y54.578 E.0488
G1 X172.237 Y54.219 E.02412
G1 X173.64 Y53.545 E.0488
G1 X175.071 Y52.944 E.04869
G1 X176.531 Y52.414 E.04869
G1 X178.016 Y51.959 E.04869
G1 X179.521 Y51.579 E.04869
G1 X181.044 Y51.275 E.04869
G1 X182.58 Y51.047 E.04869
G1 X184.126 Y50.897 E.04869
G1 X185.68 Y50.825 E.0488
G1 X186.46 Y50.818 E.02445
G1 X188.005 Y50.862 E.04847
G1 X189.553 Y50.984 E.04869
G1 X191.093 Y51.183 E.04869
G1 X192.621 Y51.46 E.04869
G1 X194.137 Y51.813 E.0488
G1 X194.879 Y52.016 E.02412
G1 X196.364 Y52.482 E.0488
G1 X197.82 Y53.022 E.04869
G1 X199.248 Y53.633 E.04869
G1 X200.643 Y54.315 E.04869
G1 X202.005 Y55.068 E.0488
G1 X202.663 Y55.465 E.02412
G1 X203.965 Y56.318 E.0488
G1 X205.222 Y57.236 E.0488
G1 X205.826 Y57.712 E.02412
G1 X207.011 Y58.722 E.0488
G1 X208.141 Y59.787 E.04868
G1 X209.216 Y60.907 E.04869
G1 X210.234 Y62.08 E.04868
G1 X211.192 Y63.302 E.04869
G1 X212.087 Y64.571 E.04868
G1 X212.919 Y65.886 E.0488
G1 X213.306 Y66.551 E.02411
G1 X214.037 Y67.925 E.0488
G1 X214.697 Y69.331 E.04868
G1 X215.285 Y70.768 E.04869
G1 X215.802 Y72.236 E.0488
G1 X216.03 Y72.97 E.02412
G1 X216.436 Y74.477 E.04892
G1 X216.608 Y75.226 E.02412
G1 X216.899 Y76.755 E.0488
G1 X217.113 Y78.293 E.04869
G1 X217.249 Y79.84 E.04869
G1 X217.307 Y81.772 E.06059
G1 X217.249 Y83.72 E.06111
G1 X217.113 Y85.271 E.0488
G1 X217.015 Y86.044 E.02445
G1 X216.764 Y87.569 E.04847
G1 X216.435 Y89.087 E.04869
G1 X216.031 Y90.586 E.04869
G1 X215.552 Y92.063 E.04869
G1 X215 Y93.515 E.04869
G1 X214.379 Y94.93 E.04847
G1 X214.039 Y95.632 E.02445
G1 X213.307 Y97.006 E.0488
G1 X212.51 Y98.338 E.04869
G1 X211.647 Y99.629 E.04869
G1 X210.721 Y100.875 E.04868
G1 X209.732 Y102.073 E.04869
G1 X208.683 Y103.223 E.0488
G1 X208.136 Y103.778 E.02445
G1 X207.011 Y104.839 E.04847
G1 X205.829 Y105.846 E.04869
G1 X204.598 Y106.792 E.04869
G1 X203.321 Y107.676 E.04869
G1 X202.001 Y108.494 E.04869
G1 X200.639 Y109.247 E.0488
G1 X199.953 Y109.594 E.02412
G1 X198.538 Y110.242 E.0488
G1 X197.092 Y110.819 E.0488
G1 X196.367 Y111.077 E.02412
G1 X194.883 Y111.543 E.0488
G1 X193.38 Y111.934 E.04869
G1 X191.859 Y112.248 E.04869
G1 X190.325 Y112.486 E.04868
G1 X188.777 Y112.647 E.0488
G1 X188.009 Y112.698 E.02411
G1 X186.453 Y112.743 E.0488
G1 X184.901 Y112.709 E.04869
G1 X183.352 Y112.598 E.04869
G1 X181.811 Y112.409 E.04869
G1 X180.281 Y112.143 E.04869
G1 X178.766 Y111.8 E.04869
G1 X177.271 Y111.383 E.04869
G1 X175.798 Y110.89 E.04868
G1 X174.342 Y110.321 E.04902
G1 X172.933 Y109.686 E.04847
G1 X172.244 Y109.344 E.02411
G1 X170.876 Y108.601 E.0488
G1 X169.551 Y107.791 E.04869
G1 X168.268 Y106.917 E.04869
G1 X167.031 Y105.979 E.04869
G1 X165.842 Y104.98 E.04869
G1 X164.702 Y103.92 E.0488
G1 X164.158 Y103.375 E.02415
G1 X163.361 Y102.521 E.03659
G1 X162.594 Y101.642 E.03659
G1 X162.107 Y101.045 E.02415
G1 X161.17 Y99.802 E.0488
G1 X160.298 Y98.518 E.04869
G1 X159.492 Y97.191 E.04869
G1 X158.751 Y95.821 E.0488
G1 X158.41 Y95.131 E.02415
G1 X157.929 Y94.067 E.03659
G1 X157.484 Y92.988 E.03659
G1 X157.214 Y92.267 E.02415
G1 X156.724 Y90.79 E.0488
G1 X156.31 Y89.293 E.04869
G1 X155.971 Y87.778 E.04869
G1 X155.708 Y86.248 E.04867
G1 X155.496 Y84.48 E.05582
M204 S1000
G1 X155.125 Y84.536 F10800
M204 S800
;TYPE:External perimeter
G1 F1200
G1 X155.079 Y84.433 E.00355
G1 X154.938 Y84.37 E.00483
G1 X39.757 Y84.37 E3.61141
G1 X39.757 Y79.19 E.16242
G1 X154.938 Y79.19 E3.61141
G1 X155.059 Y79.146 E.00405
G1 X155.125 Y79.025 E.00433
G1 X155.231 Y78.039 E.03109
G1 X155.458 Y76.482 E.04932
G1 X155.763 Y74.94 E.04928
G1 X156.144 Y73.416 E.04928
G1 X156.601 Y71.912 E.04928
G1 X157.134 Y70.433 E.0493
G1 X157.583 Y69.343 E.03695
G1 X158.069 Y68.27 E.03695
G1 X158.782 Y66.869 E.04929
G1 X159.565 Y65.504 E.04932
G1 X159.98 Y64.84 E.02456
G1 X160.863 Y63.538 E.04932
G1 X161.81 Y62.284 E.04928
G1 X162.818 Y61.078 E.04928
G1 X163.886 Y59.924 E.04928
G1 X165.01 Y58.826 E.04928
G1 X166.187 Y57.785 E.04928
G1 X167.416 Y56.804 E.04928
G1 X168.692 Y55.887 E.04928
G1 X170.012 Y55.034 E.04928
G1 X171.375 Y54.248 E.04932
G1 X172.067 Y53.882 E.02456
G1 X173.485 Y53.201 E.04932
G1 X174.934 Y52.592 E.04928
G1 X176.412 Y52.057 E.04928
G1 X177.914 Y51.596 E.04928
G1 X179.438 Y51.211 E.04928
G1 X180.98 Y50.903 E.04928
G1 X182.534 Y50.673 E.04928
G1 X184.099 Y50.521 E.04928
G1 X185.67 Y50.448 E.04932
G1 X186.464 Y50.441 E.0249
G1 X188.026 Y50.485 E.04898
G1 X189.592 Y50.609 E.04928
G1 X191.151 Y50.811 E.04928
G1 X192.698 Y51.09 E.04928
G1 X194.23 Y51.448 E.04932
G1 X194.985 Y51.654 E.02456
G1 X196.486 Y52.126 E.04932
G1 X197.96 Y52.671 E.04928
G1 X199.405 Y53.29 E.04928
G1 X200.817 Y53.98 E.04928
G1 X202.193 Y54.741 E.04932
G1 X202.864 Y55.146 E.02456
G1 X204.18 Y56.008 E.04932
G1 X205.45 Y56.936 E.04932
G1 X206.065 Y57.421 E.02456
G1 X207.263 Y58.441 E.04932
G1 X208.407 Y59.519 E.04928
G1 X209.495 Y60.653 E.04928
G1 X210.525 Y61.84 E.04928
G1 X211.494 Y63.077 E.04928
G1 X212.4 Y64.361 E.04928
G1 X213.242 Y65.69 E.04932
G1 X213.635 Y66.368 E.02456
G1 X214.374 Y67.756 E.04932
G1 X215.042 Y69.179 E.04928
G1 X215.638 Y70.634 E.04928
G1 X216.16 Y72.117 E.04932
G1 X216.392 Y72.865 E.02456
G1 X216.802 Y74.385 E.04936
G1 X216.977 Y75.149 E.02456
G1 X217.272 Y76.694 E.04932
G1 X217.488 Y78.251 E.04928
G1 X217.625 Y79.817 E.04928
G1 X217.669 Y80.984 E.03663
G1 X217.685 Y82.172 E.03724
G1 X217.625 Y83.744 E.04932
G1 X217.488 Y85.311 E.04932
G1 X217.388 Y86.098 E.02489
G1 X217.134 Y87.64 E.04898
G1 X216.802 Y89.176 E.04928
G1 X216.393 Y90.694 E.04928
G1 X215.908 Y92.189 E.04928
G1 X215.349 Y93.658 E.04928
G1 X214.721 Y95.088 E.04899
G1 X214.375 Y95.803 E.0249
G1 X213.636 Y97.192 E.04932
G1 X212.829 Y98.54 E.04928
G1 X211.955 Y99.847 E.04928
G1 X211.017 Y101.108 E.04928
G1 X210.017 Y102.321 E.04928
G1 X208.957 Y103.482 E.04932
G1 X208.4 Y104.048 E.0249
G1 X207.263 Y105.12 E.04899
G1 X206.066 Y106.139 E.04928
G1 X204.82 Y107.097 E.04928
G1 X203.528 Y107.991 E.04928
G1 X202.192 Y108.819 E.04928
G1 X200.816 Y109.58 E.04932
G1 X200.116 Y109.933 E.02456
G1 X198.686 Y110.589 E.04932
G1 X197.225 Y111.172 E.04932
G1 X196.487 Y111.434 E.02456
G1 X194.986 Y111.906 E.04932
G1 X193.465 Y112.301 E.04928
G1 X191.926 Y112.619 E.04928
G1 X190.373 Y112.86 E.04928
G1 X188.809 Y113.023 E.04932
G1 X188.027 Y113.075 E.02456
G1 X186.455 Y113.12 E.04932
G1 X184.883 Y113.086 E.04928
G1 X183.316 Y112.973 E.04928
G1 X181.755 Y112.782 E.04928
G1 X180.207 Y112.513 E.04928
G1 X178.674 Y112.166 E.04928
G1 X177.16 Y111.743 E.04928
G1 X175.67 Y111.245 E.04928
G1 X174.196 Y110.668 E.04962
G1 X172.771 Y110.027 E.04898
G1 X172.07 Y109.679 E.02456
G1 X170.688 Y108.927 E.04932
G1 X169.346 Y108.108 E.04928
M73 Q1 S125
G1 X168.048 Y107.223 E.04928
G1 X166.795 Y106.273 E.04928
M73 P1 R124
G1 X165.592 Y105.262 E.04928
G1 X164.44 Y104.191 E.04932
G1 X163.886 Y103.637 E.02457
G1 X163.081 Y102.774 E.03699
G1 X162.306 Y101.885 E.03699
G1 X161.811 Y101.278 E.02457
G1 X160.863 Y100.022 E.04932
G1 X159.981 Y98.721 E.04928
G1 X159.165 Y97.378 E.04928
G1 X158.416 Y95.995 E.04932
G1 X158.069 Y95.292 E.02457
G1 X157.583 Y94.217 E.03699
G1 X157.133 Y93.127 E.03699
G1 X156.859 Y92.392 E.02457
G1 X156.363 Y90.9 E.04932
G1 X155.944 Y89.385 E.04928
G1 X155.601 Y87.851 E.04928
G1 X155.335 Y86.302 E.04927
G1 X155.132 Y84.596 E.05387
M204 S1000
G1 X155.2 Y84.451 F10800
;WIPE_START
G1 F8640
G1 X155.079 Y84.433 E-.03959
G1 X154.938 Y84.37 E-.03559
G1 X151.149 Y84.37 E-.87483
;WIPE_END
G1 E-.05 F2100
G1 Z.4 F720
G1 X60.367 Y80.336 F10800
G1 Z.2 F720
G1 E1 F2100
M204 S800
;TYPE:Perimeter
G1 F1200
G1 X60.703 Y80.62 E.01379
G1 X61.041 Y81.236 E.02201
G1 X61.098 Y81.464 E.00737
G1 X61.116 Y81.972 E.01593
G1 X61.075 Y82.203 E.00737
G1 X60.885 Y82.674 E.01593
G1 X60.754 Y82.87 E.00737
G1 X60.388 Y83.223 E.01593
G1 X60.189 Y83.347 E.00737
;WIDTH:0.443258
G1 X59.716 Y83.533 E.01692
;WIDTH:0.451022
G1 X59.478 Y83.57 E.00817
;WIDTH:0.46861
G1 X58.97 Y83.544 E.01799
G1 X58.296 Y83.216 E.02653
;WIDTH:0.419999
G1 X57.914 Y82.843 E.01675
G1 X57.619 Y82.205 E.02204
G1 X57.582 Y81.858 E.01092
G1 X57.596 Y81.465 E.01234
G1 X57.653 Y81.237 E.00736
G1 X57.875 Y80.781 E.01591
G1 X58.02 Y80.595 E.00737
G1 X58.409 Y80.268 E.01593
G1 X58.617 Y80.158 E.00738
;WIDTH:0.444799
G1 X59.102 Y80.005 E.01701
;WIDTH:0.458322
G1 X59.641 Y80.001 E.01862
G1 X60.295 Y80.275 E.02448
;WIDTH:0.419999
G1 X60.321 Y80.297 E.00108
M204 S1000
G1 X60.068 Y80.586 F10800
M204 S800
;TYPE:External perimeter
G1 F1200
G1 X60.142 Y80.619 E.00254
G1 X60.479 Y80.944 E.01469
G1 X60.702 Y81.401 E.01593
G1 X60.739 Y81.985 E.01834
G1 X60.535 Y82.533 E.01834
G1 X60.126 Y82.952 E.01834
G1 X59.583 Y83.167 E.01834
G1 X58.998 Y83.143 E.01834
G1 X58.473 Y82.883 E.01837
G1 X58.16 Y82.535 E.01469
G1 X57.969 Y82.063 E.01596
G1 X57.973 Y81.478 E.01835
G1 X58.214 Y80.946 E.01832
G1 X58.651 Y80.557 E.01834
G1 X59.21 Y80.38 E.01837
G1 X59.677 Y80.412 E.01469
G1 X60.013 Y80.562 E.01153
M204 S1000
G1 X60.131 Y80.535 F10800
;WIPE_START
G1 F8640
G1 X60.142 Y80.619 E-.03258
G1 X60.479 Y80.944 E-.10815
G1 X60.702 Y81.401 E-.11734
G1 X60.739 Y81.985 E-.13509
G1 X60.535 Y82.533 E-.1351
G1 X60.126 Y82.952 E-.13509
G1 X59.583 Y83.167 E-.13509
G1 X58.998 Y83.143 E-.13509
G1 X58.934 Y83.111 E-.01647
;WIPE_END
G1 E-.05 F2100
G1 Z.4 F720
G1 X58.286 Y80.15 F10800
G1 Z.2 F720
G1 E1 F2100
M204 S800
;TYPE:Solid infill
;WIDTH:0.421682
G1 F1200
G1 X58.043 Y79.907 E.01083
G1 X57.507 Y79.907 E.01687
G1 X57.875 Y80.274 E.01636
G1 X57.789 Y80.346 E.00351
G1 X57.623 Y80.558 E.00849
G1 X56.972 Y79.907 E.02902
G1 X56.436 Y79.907 E.01687
G1 X57.436 Y80.907 E.04454
G1 X57.341 Y81.102 E.00686
G1 X57.292 Y81.298 E.00636
G1 X55.901 Y79.907 E.06198
G1 X55.365 Y79.907 E.01687
G1 X57.245 Y81.787 E.08375
G1 X57.239 Y81.976 E.00597
G1 X57.299 Y82.317 E.0109
G1 X57.339 Y82.416 E.00336
G1 X54.829 Y79.907 E.11177
G1 X54.294 Y79.907 E.01687
G1 X58.041 Y83.654 E.1669
G1 X57.505 Y83.654 E.01687
G1 X53.758 Y79.907 E.1669
G1 X53.222 Y79.907 E.01687
G1 X56.969 Y83.654 E.1669
G1 X56.434 Y83.654 E.01687
G1 X52.687 Y79.907 E.1669
G1 X52.151 Y79.907 E.01687
G1 X55.898 Y83.654 E.1669
G1 X55.362 Y83.654 E.01687
G1 X51.615 Y79.907 E.1669
G1 X51.08 Y79.907 E.01687
G1 X54.827 Y83.654 E.1669
G1 X54.291 Y83.654 E.01687
G1 X50.544 Y79.907 E.1669
G1 X50.008 Y79.907 E.01687
G1 X53.755 Y83.654 E.1669
G1 X53.22 Y83.654 E.01687
G1 X49.473 Y79.907 E.1669
M73 Q1 S124
G1 X48.937 Y79.907 E.01687
G1 X52.684 Y83.654 E.1669
G1 X52.149 Y83.654 E.01687
G1 X48.401 Y79.907 E.1669
G1 X47.866 Y79.907 E.01687
G1 X51.613 Y83.654 E.1669
G1 X51.077 Y83.654 E.01687
G1 X47.33 Y79.907 E.1669
G1 X46.794 Y79.907 E.01687
G1 X50.542 Y83.654 E.1669
G1 X50.006 Y83.654 E.01687
G1 X46.259 Y79.907 E.1669
G1 X45.723 Y79.907 E.01687
G1 X49.47 Y83.654 E.1669
G1 X48.935 Y83.654 E.01687
G1 X45.188 Y79.907 E.1669
G1 X44.652 Y79.907 E.01687
G1 X48.399 Y83.654 E.1669
G1 X47.863 Y83.654 E.01687
G1 X44.116 Y79.907 E.1669
G1 X43.581 Y79.907 E.01687
G1 X47.328 Y83.654 E.1669
G1 X46.792 Y83.654 E.01687
G1 X43.045 Y79.907 E.1669
G1 X42.509 Y79.907 E.01687
G1 X46.256 Y83.654 E.1669
G1 X45.721 Y83.654 E.01687
G1 X41.974 Y79.907 E.1669
G1 X41.438 Y79.907 E.01687
G1 X45.185 Y83.654 E.1669
G1 X44.649 Y83.654 E.01687
G1 X40.902 Y79.907 E.1669
G1 X40.474 Y79.907 E.0135
G1 X40.474 Y80.013 E.00337
G1 X44.114 Y83.654 E.16214
G1 X43.578 Y83.654 E.01687
G1 X40.474 Y80.549 E.13828
G1 X40.474 Y81.085 E.01687
G1 X43.042 Y83.654 E.11442
G1 X42.507 Y83.654 E.01687
G1 X40.474 Y81.62 E.09056
G1 X40.474 Y82.156 E.01687
